packages/kaspersky-hexa-ui-icons/src/iconsSVGs/32/Lighting.svg

<svg width="32" height="32" viewBox="0 0 32 32" fill="none" xmlns="http://www.w3.org/2000/svg">
<path fill-rule="evenodd" clip-rule="evenodd" d="M16.9948 2.6831C18.2871 1.20629 20.7118 2.27996 20.4868 4.22936L19.244 13.0003L24 13.0002C25.7222 13.0002 26.6391 15.032 25.4997 16.3234L14.1117 29.3022C12.7737 30.8186 10.2877 29.6182 10.6432 27.6274L12.6121 18.0003H8.00005C6.28174 18.0003 5.36337 15.9764 6.49489 14.6833L16.9948 2.6831ZM18.5 4.00011L8.00005 16.0003H15.0008L12.6121 27.979L24 15.0002L17 15.0003L18.5 4.00011Z" fill="black"/>
</svg>

<svg xmlns="http://www.w3.org/2000/svg" width="32" height="32" fill="none" viewBox="0 0 32 32"><path fill="#000" fill-rule="evenodd" d="M16.9948 2.6831c1.2922-1.4768 3.7169-.4031 3.492 1.5463l-1.2428 8.7709 4.7559-.0001c1.7223 0 2.6392 2.0318 1.4997 3.3232L14.1117 29.3022c-1.338 1.5164-3.8241.316-3.4686-1.6748l1.9689-9.6271H8c-1.7183 0-2.6367-2.0239-1.5052-3.317zm1.5051 1.317-10.5 12.0002h7.0009L12.612 27.979l11.3879-12.9788-7 .0001z"/></svg>
